X: 796
T: Kitty in the Lane   #2
R: reel
%S: s:2 b:13(6+7)
B: Francis O'Neill: "The Dance Music of Ireland" (1907) #796
Z: Frank Nordberg - http://www.musicaviva.com
F: http://www.musicaviva.com/abc/tunes/ireland/oneill-1001/0796/oneill-1001-0796-1.abc
M: C|
L: 1/8
K: Dmix
"^A"\
|: dcA(B cB)cA | GEDE c2(Bc) | dcA(B \
[1,3 cB)c(A | GE)cE (ED)D2 :|\
[2,4 cde(d | cA)GE (ED)D2 |]
"^B"\
[| Add(g f2)ed | cde(f \
[1,3 gf)gA | Add(g fg)ed | cde(g fd)dc :|\
[2,4 g2fg | afg(e fd)e(d | cA)GE (ED)D2 |]
